X:1
T:Pentecostal Power
T:Pentecostal Power
T:Charles Hutchinson Gabriel
T:Charles Hutchinson Gabriel, 1912
T:Public Domain Courtesy of the Cyber Hymnal™
T:Public Domain Courtesy of the Cyber Hymnal™
C:Charles Hutchinson Gabriel
Z:Public Domain
Z:Courtesy of the Cyber Hymnal™
%%score ( 1 2 ) ( 3 4 )
L:1/8
Q:1/4=110
M:2/2
K:Ab
V:1 treble 
V:2 treble 
V:3 bass 
V:4 bass 
V:1
 [Ec]2 | [DB]2 [CA]2 [CA]3 [CB] | [DA]2 [DG]2 [DG]3 E | [Ed]2 [Ed]2 [Ed]2 [Ed]2 | [Ec]6 [Ec]2 | %5
w: 1.~Lord,|as of old, at|Pen- te- cost, Thou|didst Thy power dis-|play, With|
w: 2.~For|might- y works for|Thee, pre- pare And|strength- en eve- ry|heart; Come,|
w: 3.~All|self con- sume, all|sin de- stroy! With|ear- nest zeal en-|due Each|
w: 4.~Speak,|Lord! be- fore Thy|throne we wait, Thy|prom- ise we be-|lieve, And|
 [DB]2 [CA]2 [CA]3 [CB] | [FA]2 [EG]2 [EG]3 [FA] | [GB]2 [GB]2 [Ac]2 [A=d]2 | [Ge]4 || %9
w: cleans- ing, pur- i-|fy- ing flame, De-|scend on us to-|day.|
w: take pos- sess- ion|of Thine own, And|ne- ver more de-|part.|
w: wait- ing heart to|work for Thee; O|Lord, our faith re-|new!|
w: will not let Thee|go un- til The|bless- ing we re-|ceive.|
"^Refrain" [Ge]4 | [Ec]>[Ec] [Ec]4 [DB]2 | [DB]2 [CA]4 [Ec]2 | [FA]>[FA] [FA]4 [DF]2 | %13
w: ||||
w: ||||
w: ||||
w: ||||
 [DF]2 [CE]4 [CA]2 | [DA]2 [DG]4 [DB]2 | [DB]2 [CA]4 [Ec]2 | [=Dc]2 [DB]2 [DB]2 [Dc]2 | %17
w: ||||
w: ||||
w: ||||
w: ||||
 [EB]4 [Ge]4 | [Ec]>[Ec] [Ec]4 [DB]2 | [DB]2 [CA]4 [Ec]2 [FA]>[FA] [FA]4 [DF]2 | %20
w: |||
w: |||
w: |||
w: |||
 [DF]2 [CE]4 [CE]2 | [DF] [FA]3 [FA]2 [FB]2 | [Ec] [Ee]3 [Ee]2 [Fd]2 | [Ec]4 [DB]3 [DB] | [CA]6 |] %25
w: |||||
w: |||||
w: |||||
w: |||||
V:2
 x2 | x8 | x7 E | x8 | x8 | x8 | x8 | x8 | x4 || x4 | x8 | x8 | x8 | x8 | x8 | x8 | x8 | x8 | x8 | %19
 x16 | x8 | x8 | x8 | x8 | x6 |] %25
V:3
 [A,,A,]2 | [A,,E,]2 [A,,E,]2 [A,,E,]3 [A,,A,] | [E,B,]2 [E,B,]2 [E,B,]3 [E,G,] | %3
w: ~|~ ~ ~ ~|~ ~ ~ ~|
 [E,G,]2 [F,A,]2 [G,B,]2 [E,G,]2 | A,6 [A,,A,]2 | [A,,E,]2 [A,,E,]2 [A,,E,]3 [A,,E,] | %6
w: ~ ~ ~ ~|~ ~|~ ~ ~ ~|
 [B,,B,]2 [B,,B,]2 [B,,B,]3 [B,,B,] | [B,,E]2 [B,,E]2 [B,,=D]2 [B,,B,]2 | [E,B,]4 || [E,B,]4 | %10
w: ~ ~ ~ ~|~ ~ ~ ~|~|Lord,|
 A,>A, [A,,A,]4 [A,,E,]2 | [A,,E,]2 [A,,A,]4 A,2 | [D,D]>[D,D] [D,D]4 [D,A,]2 | %13
w: send the old- time|pow- er, the|Pen- te- cost- al|
 [A,,A,]2 [A,,A,]4 [A,,A,]2 | [E,B,]2 [E,B,]4 [E,G,]2 | [A,,A,]2 [A,,A,]4 [A,,A,]2 | %16
w: pow- er! Thy|flood- gates of|bless- ing, on|
 [B,,A,]2 [B,,A,]2 [B,,A,]2 [B,,A,]2 | [E,G,]4 [E,B,]4 | A,>A, [A,,A,]4 [A,,E,]2 | %19
w: us throw o- pen|wide! Lord,|send the old- time|
 [A,,E,]2 [A,,A,]4 A,2 [F,D]>[F,D] [F,D]4 [D,A,]2 | [A,,A,]2 [A,,A,]4 [A,,A,]2 | %21
w: pow- er, the Pen- te- cost- al|pow- er! That|
 [D,A,] [D,D]3 [D,D]2 [D,A,]2 | A, [A,C]3 [C,A,]2 [D,A,]2 | [E,A,]4 [E,G,]3 [E,G,] | [A,,A,]6 |] %25
w: sin- ners be con-|vert- ed and Thy|name glor- i-|fied!|
V:4
 x2 | x8 | x8 | x8 | A,6 x2 | x8 | x8 | x8 | x4 || x4 | x8 | x6 A,2 | x8 | x8 | x8 | x8 | x8 | x8 | %18
 x8 | x16 | x8 | x8 | A, x7 | x8 | x6 |] %25

